X:115
M:6/8
L:1/8
K:D
|:F/G/|ABA AFA|(B/c/d)B AFA|Bcd efg|Bgf ecA|fdf ecA|(B/c/d)B AFD|EFG Agf|edc d2:|

